**kern	**kern	**dynam
*part1	*part1	*part1
*staff2	*staff1	*
*I"Piano	*	*
*clefG2	*clefG2	*
*k[b-e-a-d-]	*k[b-e-a-d-]	*
=1	=1	=1
8eenL	8ggL 8ddd-	.
8ffJ	8aa-J 8ccc	.
4r	4r	.
4r	4r	.
*clefF4	*	*
=	=	=
2D- 2F 2B-	12ccL	.
.	12an	.
.	12b-J	.
.	12ccL	.
.	12dd-	.
.	12ee-J	.
4r	8.ggL	.
.	16ffJk	.
=	=	=
*	*^	*
2E- 2A- 2c	(8a-L	4a-	.
.	16b-L	.	.
.	16a-J	.	.
.	8g	4reyy	.
.	8a-J)	.	.
4E- 4G 4B-	(8.ccL	4d- 4e-	.
.	16b-Jk)	.	.
*	*v	*v	*
=	=	=
!	!	!LO:DY:a
8A-L	4c 4e- 4a-	<
8AA-	.	.
8AA-	4Bn 4dn 4f	.
8AA-	.	.
8AA-	4B-X 4d-X 4g	.
8AA-J	.	.
=	=	=
*^	*^	*
!	!	!	!	!LO:DY:a
!	!	!	!	!LO:DY:a
8AAA-L	2.AAA-	4A- 4c 4a-	4ryy	[ mf >
8AA-	.	.	.	.
8AA-	.	4Bn 4dn	4G<	.
8AA-	.	.	.	.
8AA-	.	4B-X 4d-X	4G<	.
8AA-J	.	.	.	.
=	=	=	=	=
!	!	!	!	!LO:DY:a
8rGG	2.AAA-	4c	4A-<	] mp
8AA-L	.	.	.	.
8AA-	.	2ryy	4r	.
8AA-	.	.	.	.
8EE-	.	.	4r	.
8CCJ	.	.	.	.
*v	*v	*	*	*
*	*v	*v	*
=	=	=
2AAA-	2.r	.
4r	.	.
==	==	==
*-	*-	*-
!!!system-decoration: {(s1,s2)}
!!!RDF**kern: < = below
